img/Privat24-logo.svg

<svg width="40" height="40" viewBox="0 0 40 40" fill="none" xmlns="http://www.w3.org/2000/svg">
<path d="M20 0.127319C30.9739 0.127319 39.8727 9.02611 39.8727 20C39.8727 30.9739 30.9739 39.8727 20 39.8727C9.02611 39.8727 0.127319 30.9739 0.127319 20C0.127319 9.02611 9.02611 0.127319 20 0.127319Z" fill="url(#paint0_linear_1213_1248)"/>
<path d="M20 0C8.96245 0 0 8.94971 0 20C0 31.0503 8.94971 40 20 40C31.0503 40 40 31.0503 40 20C40 8.94971 31.0503 0 20 0ZM20 37.7976C10.1719 37.7976 2.20242 29.8281 2.20242 20C2.20242 10.1719 10.1719 2.20242 20 2.20242C29.8281 2.20242 37.7976 10.1719 37.7976 20C37.7976 29.8281 29.8281 37.7976 20 37.7976Z" fill="#8DC641"/>
<path d="M26.9892 15.4552L22.5335 22.0625H26.9892V15.4552ZM28.6697 12.7817V22.0752H30.6302V23.7556H28.6697V27.2311H26.9765V23.7556H20.6748V21.9479L27.0274 12.7945L28.6697 12.7817ZM18.8161 25.5379V27.2184H9.36987V27.1675C9.45899 25.5889 9.86637 24.4304 10.6557 23.4756C11.2922 22.6863 12.0688 22.1006 13.6601 21.1076C13.6601 21.1076 14.2203 20.7512 14.3858 20.6493C15.2387 20.1019 15.7862 19.6691 16.2317 19.1726C16.7792 18.536 17.0592 17.8486 17.0592 17.0338C17.0592 15.4552 15.9389 14.3731 14.3349 14.3731C12.4634 14.3731 11.5086 15.7989 11.4577 17.925V17.9632H9.77726V17.925L9.76453 17.543C9.76453 14.6913 11.6232 12.7817 14.424 12.7817C17.1611 12.7817 18.9434 14.4367 18.9434 16.9956C18.9434 18.3069 18.4724 19.3635 17.5685 20.2929C16.8937 21.0058 16.1936 21.4768 14.6277 22.4316C14.6022 22.4444 14.5895 22.4571 14.564 22.4698C14.4876 22.508 14.1439 22.7117 14.0548 22.7754C13.3037 23.2209 12.8454 23.5392 12.438 23.9211C11.9415 24.3922 11.6105 24.9141 11.4577 25.5252H18.8161V25.5379Z" fill="white"/>
<defs>
<linearGradient id="paint0_linear_1213_1248" x1="0.127319" y1="20" x2="39.8727" y2="20" gradientUnits="userSpaceOnUse">
<stop stop-color="#333333"/>
<stop offset="1"/>
</linearGradient>
</defs>
</svg>

<svg width="40" height="40" fill="none" xmlns="http://www.w3.org/2000/svg"><path d="M20 .127c10.974 0 19.873 8.9 19.873 19.873 0 10.974-8.9 19.873-19.873 19.873C9.026 39.873.127 30.973.127 20 .127 9.026 9.027.127 20 .127z" fill="url(#paint0_linear_1213_1248)"/><path d="M20 0C8.962 0 0 8.95 0 20s8.95 20 20 20 20-8.95 20-20S31.05 0 20 0zm0 37.798c-9.828 0-17.798-7.97-17.798-17.798S10.172 2.202 20 2.202 37.798 10.172 37.798 20 29.828 37.798 20 37.798z" fill="#8DC641"/><path d="M26.99 15.455l-4.456 6.607h4.455v-6.607zm1.68-2.673v9.293h1.96v1.68h-1.96v3.476h-1.694v-3.475h-6.301v-1.808l6.352-9.154 1.643-.012zm-9.854 12.756v1.68H9.37v-.05c.089-1.58.496-2.738 1.286-3.692.636-.79 1.413-1.375 3.004-2.368 0 0 .56-.357.726-.459.853-.547 1.4-.98 1.846-1.476.547-.637.827-1.324.827-2.14 0-1.578-1.12-2.66-2.724-2.66-1.872 0-2.826 1.426-2.877 3.552v.038h-1.68v-.038l-.013-.382c0-2.852 1.858-4.761 4.659-4.761 2.737 0 4.52 1.655 4.52 4.214 0 1.31-.472 2.367-1.375 3.297-.675.713-1.375 1.184-2.941 2.139-.026.012-.039.025-.064.038-.076.038-.42.242-.51.305-.75.446-1.209.764-1.616 1.146-.497.471-.828.993-.98 1.604h7.358v.013z" fill="#fff"/><defs><linearGradient id="paint0_linear_1213_1248" x1=".127" y1="20" x2="39.873" y2="20" gradientUnits="userSpaceOnUse"><stop stop-color="#333"/><stop offset="1"/></linearGradient></defs></svg>
